!!!OTL: Die heiligen zwölf Zahlen (304a), S. 627
!!!id: T0494
**kern
*clefG2
*k[f#]
*G:
{16g
=1
16g
8.b
16b
8b
8b
=2
8.b
16a
4g}
=3
{8.b
16b
8b
8a
=4
8.g
16f#
4g}
=5
{8.b
16b
8b
8a
=6
4b
4g}
=7
{8b
8b
8b
8a
=8
8.cc
16b
4a}
=9
{8f#
8g
4a
=10
8f#
8g
8a
8a}
=11
{8b
8a
8b
8g
=12
4a
8g}
8r
==
*-
!!!minrhy: 16
!!!meters: 2/4 ]  ZZ[6
!!!cut: Die heiligen zwölf Zahlen (304a), S. 627
!!!reg: Luxemburg
!!!trd: Singendes Volk, Esch-Alzette 1937 posth.
!!!rhy1:   X_.XX_X_  X_.XX__
!!!rhy2: X_.XX_X_  X_.XX__
!!!key: T0494  16  G 2/4 ]  ZZ[6
!!!mod: PENTATONIK ]  AMBITUS[4#
!!!kad: 111221
!!!akz: 33_31_33_34_-7-7_32_
!!!fot: 'a__aw_av_b__c__aw_
!!!for: 'a__a__b__c__d__e__
!!!fok: '\__\__\__\__/__\__
!! PHRAS[VOLLTAKTIG]
!!!fkt: geistliches Lied
!!!bem: Beidweiler, hhh Johann Didier, 1933
!! THILL, Mathias
!! PR[28] 2K[10] 2G[25] 3K[0] 3G[3] 4A[0] 4Ü[0] 5A[0] 6K[0] 6G[0]
!! 7K[0] 7G[0] 8A[0] MEHR[0] SI[38] ABS[40] SR[35] SP[3]
!! ST[12] 2k[0] 2g[25] 3k[10] 3g[0] 4d[0] 4ü[0] 5d[0] 6k[0] 6g[0]
!! 7k[0] 7g[0] 8d[0] mehr[0] si[35] dm[+3] sr[25] sp[10]
!! 1F[0] 2F[83] 3F[17] 4F[0] LF[0] 2P[0] 3P[0] 4P[0] TRI[0] DF[2] AB[41]
!! TF[0] U3K[0] U3[0] U4[0] U4Ü[0] U5[0] U6K[0] U6[0] U7K[0] U7[0]
!! N1[5] N2K[0] N2[20] N3K[0] N3[39] N4[15] N4Ü[0] N5[17] N6K[0] N6[5]
!!!n7k: 0] N7[0] O1[0] O2K[0] O2[0] O3K[0] O3[0] HÖ[0
